X:1
T:Tarantelle
T:Tarantelle
T:Op. 13 Bardenklänge H 6
T:Johann Kaspar Mertz (tabbed by Classical Guitar Empire)
C:Johann Kaspar Mertz (tabbed by Classical Guitar Empire)
%%score { ( 1 2 5 ) | ( 3 4 6 ) }
L:1/8
Q:1/4=145
M:6/8
K:C
V:1 treble-8 nm="Guitar" snm="Guit."
V:2 treble-8 
V:5 treble-8 
V:3 tab stafflines=6 strings=E2,A2,D3,G3,B3,E4 nostems 
V:4 tab stafflines=6 strings=E2,A2,D3,G3,B3,E4 nostems 
V:6 tab stafflines=6 strings=E2,A2,D3,G3,B3,E4 nostems 
V:1
!p!"^Più Allegro" z6 | eEe E2 e | z6 | eEe E2 e |"_cresc."!<(!x[Ee]x !>!e2 e | %5
x[Ee]x!<)!!mf! !>!e2 e | !>![Ff]6 | [A^d]6 | [^Ge]6 |!<(!x[Ee]x !>!e2 e!<)! |!ff! !>![Ff]6 | %11
 [^DA]6 | ^G3 e3 |"^12""^har." !>!e'3"^loco" E3 | ^G3 e3 | !>!e'3"^loco" E3 | %16
"_rit poco a poco"[Q:3/8=92] A3 e3 |[Q:3/8=88] !>!e'3"^loco" E3 |"^dim."!f![Q:3/8=84] ^G3!mf! e3 | %19
!mp![Q:3/8=76] !>!e'3"^loco"!p! !fermata!E3 || %20
[M:6/8]"^Presto allegramente"[Q:3/8=116]!f!!<(! !3!!4![ca]aa!<)!!ff! [ca]2!f! !0!e | %21
 !>![^Gdf]ed [Ace]2 c |!<(! !2!AAA!<)!!ff! A3 | A3!mf! [^GB]2 e | %24
!f!!<(! [ca]aa!<)!!ff! [ca]2!f! e |({f=g)} fed !>![Ace]2 c | !0!B!1!c!3!d !1!c!0!B!3!A | %27
 !1!^GAB A3 |:!mf! A^GA !>!_B2!f! [=Bf] | [ABe]2 [^GBe] !>![ca]2 e :|!mf! A^GA !>!_B2!f! [=Bf] | %31
 [ABe]2 [^GBe] !>![ca]2!mf! e |: !>!c'2 a !>!c'2 a ::"^V" !3!!2![df]2"_dol."!mp! !1!a !1![ce]3 :| %34
"^loco"!mf!{/=g} .[Bf].e.d .c.B.A | .^G.A.B .c.d.e |: [df]2!mp! a [ce]3 :| %37
!mf!{/!3!=g} !1!f!0!e!3!d !1!c!0!B!3!A | [^GB]2 e A3 | z6 |!f!!<(! [Ac^f]ff!<)!!ff! [^GBe]3 | %41
 z4 z e |!f!!<(! [Ac^f]ff!<)!!ff! [^GBe]3 | [^GBe]3 [GBe]3 |"^cresc."!f! [Be]2 [Be]!ff!x[^GBe]x | %45
!p! [d^g]3 [dg]3 |!<(! [d^g]2 [dg]x[Bdg]x!<)! |!f!!<(! !1![ea]aa!<)!!ff! [ea]2!f! !0!e | %48
 !>![^Gdf]ed [Ace]2 c |!<(!{/!2!^G} !2!AAA!<)!!ff! A3 | A3 [^GB]2 e | [cea]aa [ea]2 e | %52
({f=g)} fed !>![Ace]2 c | Bcd cBA | ^GAB A3 |:!mf!!0!x!mp!!4!=g"_dol."!1!x!2!x=g!0!x | cgG !>!gGg | %57
!0!x!4!=g!1!x!2!x=g!0!x | ceG !>!cEG |!2!x!0!e!3!x!4!xe!1!x |xexxex |1!mf!xAB (!>!Bc)A | %62
 ^GBe!f! z z2 :|2!mf! d2 d g2 g || [EGc]2 z4 | GGG GGG | !>!!1!_A6 |"^I" !>!!1![_Af]6 | !0![Ge]6 | %69
 [Ge]ee eee | [^Gde]3 G3 | !>![^Gdf]3 [Gde]3 | !3!!4![ca]3{/!2!B} !3!c3 | AAA AAA | !2!!1![Ac]6 | %75
 [Ac]3 !2!!4![Ad]3 |:!mp! eee eee |!<(!{/=g} !>!f.e.e .e.e.e!<)! |!f!x[ce]xx[ce]x |x[ce]xx[ce]x :| %80
!mp! eee eee |!<(!{/=g} !>!fee ee!f!e!<)! |!mf!!<(!{/g} !>!fee ee!ff!e!<)! | %83
!>(! !4!^g!4!e'e' e'e'e'!>)! ||[K:A]!mp! e'e'e' e'e'e' | e'e'e' e'e'e' |{/e'} !0!eeexee |xeexee | %88
"^[gliss.]"{/!4!g} !4!e'e'e' e'e'e' | e'e'e' e'e'e' |{/e'} eeex"^loco"!mf!ee |xeexee | %92
"^[gliss.]"{/!4!a} !4!e'e'e' e'e'e' | e'e'e' e'e'e' |{/e'} eeexee |xeexee | %96
"^[gliss.]"{/g} e'e'e' e'e'e' | e'e'e' e'e'e' |{/e'} eeexee |xeexee | %100
"^[gliss.]"{/!4!a} !4!c'c'c' c'c'c' | c'c'c' c'c'c' | (!4!c'!1!b)b"^VII" !1!bbb | !4!bbb bbb | %104
 (!4!b!1!a)a aaa |!0!x!0!B!4!axBa |!f! a2 a e2 e | f2 f e2 e |"^[gliss.]"!mf!{/a} c'c'c' c'c'c' | %109
 c'c'c' c'c'c' | (!4!c'!1!b)b bbb | !4!bbb bbb | (ba)a aaa |xBaxBa | a2 a"^cresc." e2 e | %115
 e2 e g2 g | =a2 a e2 e | e2 e g2 g |"^[gliss.]"{/!4!a} !4!e'e'e' e'e'e' |xe'e'!fff! e'e'e' | %120
 !>![Dff']6 | !>![E,Bdg]3- !fermata![E,Bdg]3 ||[K:C]!f!!<(! [ca]aa!<)!!ff! a2!f! e | %123
 [df]ed [ce]2 c |!<(! AAA!<)!!ff! A3 | A3 [^GB]2 e | aaa a2 e |({f=g)} fed !>![Ace]2!mf! c | %128
 .B.c.d .c.B.A | .^G.A.B A3 | A^GA !>!_B2!f! [=Bf] | [ABe]2 [^GBe] [ca]2 e |: %132
!mf! A^GA !>!_B2!f! [=Bf] | [ABe]2 [^GBe] !>![ca]2 e ::!mf! !>!c'2 a !>!c'2 a :: %135
"_dol." [df]2!mp! a [ce]3 :|!mf!{/=g} f.e.d .c.B.A | .^G.A.B .c.d.e |: [df]2!mp! a [ce]3 :| %139
!mf!{/=g} fed cBA | [^GB]2 e A3 |!p! z6 |!f!!<(! ^fff!<)!!ff! [^GBe]2!p! z | z4 z e | %144
!f!!<(! ^fff!<)!!ff! [^GBe]2!p! z | !>![^GBe]3 !>![GBe]3 |"^cresc."!<(! [Be]2 [Be]x[^GBe]x!<)! | %147
!ff! !>![B=g]3 !>![Bg]3 |!<(! [Bg]2 [Bg]x[GBg]!fff!x!<)! |:!ff!xg"_dol."!f!xx=gx | cgG !>!gGg | %151
xgxx=gx | ceG !>!cEG |xexxex |xexxex |1xAB (!>!Bc)A | ^GBe!ff! z z2 :|2!ff! [ABf]3 [^GBe]3 || %158
"^con moto"[Q:3/8=124]!mf! AAA !>!c2 A | !>!!1!c2 !2!A !>!c2 A | !>!!1!c2 !3!A !>!c2 A | %161
"^I" !>!!1!c2 !2!A !>!c2 A | eAc !0!e!3!a!1!c' | !>!!4!e'3 !0!ecA | !>!E3 [AB]3 | [AB]3 [^GBe]3 | %166
 AAA !>!c2 A |xcA !>!c2 A |xcA !>!c2 A |xcA !>!c2 A | eAc eac' | (e'c')a ecA | !>!E3 [AB]3 | %173
 [AB]3 [^GBe]3 | A2 c B2 e |: A2 c B2 e :| [ca]2 e !>!e2 [^Gde] | !>!e2 [Ace] !>!e2 [^GBe] | %178
 !>!e2 [Ace] !>!e2 [^Gde] | !>!e2 [Ace] !>!e2!f! [^GBe] |!mf! [ca]2 e !>!e2!f! [^Gde] | %181
!mf! !>!e2 [Ace] !>!e2 [^GBe] | !>!e2 [Ace] !>!e2 [^Gde] | !>!e2 [Ace] !>!e2!f! [^GBe] | %184
!mf! [ca]2 e !>!e2!f! [^GBe] |:!mf! [ca]2 e !>!e2!f! [^GBe] :|!mf! [ca]2 e e2!f! [^GBe] | %187
 !>!a3!mf! !4!aaa | aaa aaa | aaa aaa | aaa aaa |!f! !>!a3!mf! aaa | aaa aaa | aaa aaa | aaa aaa | %195
"^Prestissimo"[Q:3/8=134] [ca]3 !>![AB]3 | [AB]3 [AB]3 | [ABe]3 !>![ABf]3 | [ABe]3 [^GBe]3 | %199
!p! [ca]2>"_sempre cresc."!<(!!3!x2!2!A!0!B |!0!xAB!1!xAB | [ABe]3 [ABf]3 | [ABe]3 [^GBe]3 | %203
 !2!A2>x2!2!AA |xAA!0!xAA |!1!xAA!3!xAA |xAAxAA |xAAxAA |xAAxAA |xAAxAA |xAAxAA!<)! | %211
!ff! z3 !>![^GBe]3 | !>![ca]3 [^GBe]3 | A3 !>![^GBe]3 | !>![ca]3 [^GBe]3 | A3 !>![^GBe]3 | %216
 [ca]2>!mf!!<(!x2ca |xcaxca |xc!fff!a!<)!!>(!xca |xcaxca!>)! |!p! A,6 |!f! !1![A,cea]6 | %222
!ff! !0!!3!!1![A,Acea]3- !fermata![A,Acea]3 |] %223
V:2
 E,EE, E2 E, | z6 | E,EE, E2 E, | z6 | E,2 E, EE,E | E,2 E, EE,E | z2 E, E,2 E, | z2 E, E,2 E, | %8
 z2 E, E,2 E, | E,2 E, EE,E | z2 E, E,2 E, | z2 E, E,2 E, | E2 E, x2 E, | x2 E, x2 E, | %14
 D2 E, x2 E, | x2 E, x2 E, | C2 E, x2 E, | x2 E, x2 E, | B,2 E, x2 E, | x2 E, x2 E, || %20
[M:6/8] A,3 A,3 | A,3 A,3 | A,3 A,2!f! !1!B, | !3!CB,A, E2 E, | A,3 A,3 | A,3 A,3 | !0!D3 !2!E3 | %27
 E,3 A,3 |: z4 z D | E2 E, A,3 :| z4 z D | E2 E, A,3 |: x6 :: !0!D3 !0!A,3 :| D3 E3 | E,3 A,3 |: %36
 D3 A,3 :| !0!!4![DB]3 !2!E3 | E,3 A,3 | E,EE, !>!E2 E, | ^D3 E2!mf! E, | =F,=FF, E,2 E | %42
 ^D3 E2!mf! E, | E2 E, E2 E, | ^GE,G E,2 E, | B2 E, B2 E, | BE,B E,2 E, | !1![A,c]3 !0!!1![A,c]3 | %48
 A,3 A,3 | A,3 A,2!f! B, | CB,A, E2 E, | A,3 [A,c]3 | A,3 A,3 | D3 E3 | E,3 A,3 |: !>!!3!=G,6 | %56
 C3 E3 | !>!!3!=G,6 | C6 | E,6 | A,6 |1 =F3 !>!F3 | E3 (!>!F,E,)E, :|2 [FA]3 [GB]3 || C2 C C2 C | %65
 C2 D E2 C | !3!C2 C{/!2!B,} !>!!3!C2 C | !3!C2 C{/B,} !>!C2 C | !3!C2 C{/B,} !>!C2 C | C2 D E2 C | %70
 B,2 B, B,2 B, | E,2 E, E,2 E, | A,2 A, A,2 A, | A,2 B, C2 A, | !4!=G,2 G, G,2 G, | %75
 !3!^F,2 F, !1!=F,2 F, |: [E,^G]3 z z2 | z3 !>!E3 | A2 =G F2 E | D2 C B,2 A, :| [E,^G]3 z z2 | x6 | %82
 x6 | E,6 ||[K:A] A,3 !>!!2!c3 | !>!!3!d3 !>!!1!e3 | A,3 [ce]3 | [Bd]3 [Ac]3 | E,3 !>!!1!B3 | %89
 !>!!2!c3 !>!!3!d3 | E,3 [Bd]3 | [Ac]3 [EB]3 | A,3 !>!c3 | !>!d3 !>!e3 | E,3 [ce]3 | [Bd]3 [Ac]3 | %96
 E,3 !>!B3 | !>!c3 !>!d3 | E,3 [Bd]3 | [Ac]3 [EB]3 | A,3 !1!A3 | !2!^A3 !3!e3 | !3!B3 !1!d3 | %103
 !2!G3 !3!d3 | !3!A3 !2!c3 | D3 D3 | [Ec]3 [E,c]3 | [E,Bd]3 [E,Bd]3 | A,3 A3 | ^A3 e3 | %110
 !3!B3 !1!d3 | !2!G3 !3!d3 | A3 c3 | D3 D3 | [E,c]3 [E,^Ac]3 | [E,Bd]3 [E,Bd]3 | [E,c]3 [E,^Ac]3 | %117
 [E,Bd]3 [E,Bd]3 | E,6 | !>!e3 z z2 | x6 | x6 ||[K:C] A,3 [A,c]3 | [A,^G]3 [A,A]3 | A,3 A,2!f! B, | %125
 CB,A, E2 E, | [A,c]3 [A,c]3 | A,3 A,3 | D3 E3 | E,3 A,3 | z4 z D | E2 E, A,3 |: z4 z D | %133
 E2 E, A,3 :: z6 :: D3 A,3 :| [DB]3 E3 | E,3 A,3 |: D3 A,3 :| [DB]3 E3 | E,3 A,3 | E,EE, !>!E2 E, | %142
 [^DAc]3 E2 E, | =F,=FF, E,2 E | [^DAc]3 E2 E, | E2 E, E2 E, | ^GE,G E,2 E, | =G2 G, G2 G, | %148
 GG,G G,2 G, |: G,6 | C3 E3 | G,6 | C6 | E,6 | A,6 |1 =F3 F3 | E3 (!>!F,E,)!f!E :|2 D3 E3 || %158
 A,3 A,3 | !3!=G,3 G,3 | !2!^F,3 F,3 | !1!=F,3 F,3 | E,6- | E,6 | x3 F3 | D3 E3 | A,3 A,3 | %167
 =G,3 G,3 | ^F,3 F,3 | =F,3 F,3 | E,6- | E,6 | x3 F3 | D3 E3 |xA,x ^GE,x |:xA,x ^GE,x :| %176
 A,3 z2 B, | z2 C z2 D | z2 C z2 B, | z2 A, z2 E, | A,3 z2 B, | z2 C z2 D | z2 C z2 B, | %183
 z2 A, z2 E, | A,3 z2 E, |: A,3 z2 E, :| A,3 z2 E, | !>![A,c]3 !1!B,3 | !2!C3 !0!D3 | !1!E3 !2!F3 | %190
 !1!E3 !2!C3 | !>![A,c]3 B,3 | C3 D3 | E3 F3 | E3 C3 | A,3 F3 | D3 ^D3 | E3 E,3 | E,3 E,3 | %199
 A,3 F3 | D3 ^D3 | E3 E,3 | E,3 E,3 | A,3 !1!B,3 | !3!C3 D3 | E3 F3 | E3 C3 | A,3 B,3 | C3 D3 | %209
 E3 F3 | E3 C3 | A,3 E,3 | A,3 E,3 | A,3 E,3 | A,3 E,3 | A,3 E,3 | A,3 A,3 | A,3 A,3 | A,3 A,3 | %219
 A,3 A,3 | x6 | x6 | x6 |] %223
V:3
 x6 | !1!E !4!E, !1!E !4!E,2 !1!E | x6 | !1!E !4!E, !1!E !4!E,2 !1!E | %4
!<(! !6!E,, [!4!E,!1!E] !6!E,, !>!!1!E2 !1!E | !6!E,, [!4!E,!1!E] !6!E,,!<)! !>!!1!E2 !1!E | %6
 !>![!4!F,!1!F]6 | [!3!A,!2!^D]6 | [!3!^G,!1!^E]6 | %9
!<(! !6!E,, [!4!E,!1!E] !6!E,, !>!!1!E2 !1!E!<)! | !>![!4!F,!1!F]6 | [!4!^D,!3!^A,]6 | %12
 !3!^G,3 !1!E3 | !>!!1!e3 !4!E,3 | !3!^G,3 !1!E3 | !>!!1!e3 !4!E,3 | !3!^A,3 !1!E3 | %17
 !>!!1!e3 !4!E,3 | !3!^G,3 !1!E3 | !>!!1!e3 !fermata!!4!E,3 || %20
[M:6/8]!<(! [!3!C!1!A] !1!A !1!A!<)! [!3!C!1!A]2 !1!E | %21
 !>![!3!^G,!2!D!1!F] !1!E !2!D [!3!A,!2!C!1!E]2 !2!C |!<(! !3!A, !3!A, !3!A,!<)! !3!A,3 | %23
 !3!A,3 [!3!^G,!2!B,]2 !1!E |!<(! [!3!C!1!A] !1!A !1!A!<)! [!3!C!1!A]2 !1!E | %25
({!1!F!1!=G)} !1!F !1!E !2!D !>![!3!A,!2!C!1!E]2 !2!C | !2!B, !2!C !2!D !2!C !2!B, !3!A, | %27
 !3!^G, !3!A, !2!B, !3!A,3 |: !3!A, !3!^G, !3!A, !>!!3!_B,2 [!2!=B,!1!F] | %29
 [!3!A,!2!B,!1!E]2 [!3!^G,!2!B,!1!E] !>![!3!C!1!A]2 !1!E :| %30
 !3!A, !3!^G, !3!A, !>!!3!_B,2 [!2!=B,!1!F] | %31
 [!3!A,!2!B,!1!E]2 [!3!^G,!2!B,!1!E] !>![!3!C!1!A]2 !1!E |: !>!!1!c2 !1!A !>!!1!c2 !1!A :: %33
 [!3!D!2!F]2 !1!A [!3!C!2!E]3 :|{/!1!=G} .[!2!B,!1!F] .!1!E .!2!D .!2!C .!2!B, .!3!A, | %35
 .!3!^G, .!3!A, .!2!B, .!2!C .!2!D .!1!E |: [!3!D!2!F]2 !1!A [!3!C!2!E]3 :| %37
{/!1!=G} !1!F !1!E !2!D !2!C !2!B, !3!A, | [!3!^G,!2!B,]2 !1!E !3!A,3 | x6 | %40
!<(! [!3!A,!2!C!1!^F] !1!F !1!F!<)! [!3!^G,!2!B,!1!E]3 | x4 x !1!E | %42
!<(! [!3!A,!2!C!1!^F] !1!F !1!F!<)! [!3!^G,!2!B,!1!E]3 | [!3!^G,!2!B,!1!E]3 [!3!G,!2!B,!1!E]3 | %44
 [!2!B,!1!E]2 [!2!B,!1!E] !6!E,, [!3!^G,!2!B,!1!E] !6!E,, | [!2!D!1!^G]3 [!2!D!1!G]3 | %46
!<(! [!2!D!1!^G]2 [!2!D!1!G] !6!E,, [!3!B,!2!D!1!G] !6!E,,!<)! | %47
!<(! [!2!E!1!A] !1!A !1!A!<)! [!2!E!1!A]2 !1!E | %48
 !>![!3!^G,!2!D!1!F] !1!E !2!D [!3!A,!2!C!1!E]2 !2!C |!<(!{/!3!^G,} !3!A, !3!A, !3!A,!<)! !3!A,3 | %50
 !3!A,3 [!3!^G,!2!B,]2 !1!E | [!3!C!2!E!1!A] !1!A !1!A [!2!E!1!A]2 !1!E | %52
({!1!F!1!=G)} !1!F !1!E !2!D !>![!3!A,!2!C!1!E]2 !2!C | !2!B, !2!C !2!D !2!C !2!B, !3!A, | %54
 !3!^G, !3!A, !2!B, !3!A,3 |: !4!x !1!=G !4!x !4!x !1!=G !3!x | %56
 !2!C !1!G !3!G, !>!!1!G !3!G, !1!G | !4!x !1!=G !4!x !4!x !1!=G !3!x | %58
 !2!C !1!E !3!G, !>!!2!C !4!E, !3!G, | !5!x !1!E !5!x !5!x !1!E !4!x | %60
 !4!x !1!E !3!x !3!x !1!E !4!x |1 !5!x !3!A, !2!B, (!>!!2!B, !2!C) !3!A, | %62
 !3!^G, !2!B, !1!E x x2 :|2 !2!D2 !2!D !1!G2 !1!G || [!4!E,!3!G,!2!C]2 x4 | %65
 !3!G, !3!G, !3!G, !3!G, !3!G, !3!G, | !>!!3!_A,6 | !>![!3!_A,!1!F]6 | [!3!_G,!1!E]6 | %69
 [!3!G,!1!E] !1!E !1!E !1!E !1!E !1!E | [!3!^G,!2!D!1!E]3 !3!G,3 | %71
 !>![!3!^G,!2!D!1!F]3 [!3!G,!2!D!1!E]3 | [!3!C!1!A]3{/!3!B,} !3!C3 | %73
 !3!A, !3!A, !3!A, !3!A, !3!A, !3!A, | [!3!A,!2!C]6 | [!3!A,!2!C]3 [!3!A,!2!D]3 |: %76
 !1!E !1!E !1!E !1!E !1!E !1!E |!<(!{/!1!=G} !>!!1!F .!1!E .!1!E .!1!E .!1!E .!1!E!<)! | %78
 !4!x [!2!C!1!E] !4!x !5!x [!2!C!1!E] !5!x | !5!x [!2!C!1!E] !6!x !6!x [!2!C!1!E] !6!x :| %80
 !1!E !1!E !1!E !1!E !1!E !1!E |!<(!{/!1!=G} !>!!1!F !1!E !1!E !1!E !1!E !1!E!<)! | %82
!<(!{/!1!G} !>!!1!F !1!E !1!E !1!E !1!E !1!E!<)! |!>(! !1!^G !1!e !1!e !1!e !1!e !1!e!>)! || %84
[K:A] !1!e !1!e !1!e !1!e !1!e !1!e | !1!e !1!e !1!e !1!e !1!e !1!e | %86
{/!1!e} !1!E !1!E !1!E !1!x !1!E !1!E | !4!x !1!E !1!E !4!x !1!E !1!E | %88
{/!1!G} !1!e !1!e !1!e !1!e !1!e !1!e | !1!e !1!e !1!e !1!e !1!e !1!e | %90
{/!1!e} !1!E !1!E !1!E !4!x !1!E !1!E | !4!x !1!E !1!E !3!x !1!E !1!E | %92
{/!1!A} !1!e !1!e !1!e !1!e !1!e !1!e | !1!e !1!e !1!e !1!e !1!e !1!e | %94
{/!1!e} !1!E !1!E !1!E !1!x !1!E !1!E | !4!x !1!E !1!E !4!x !1!E !1!E | %96
{/!1!G} !1!e !1!e !1!e !1!e !1!e !1!e | !1!e !1!e !1!e !1!e !1!e !1!e | %98
{/!1!e} !1!E !1!E !1!E !4!x !1!E !1!E | !4!x !1!E !1!E !3!x !1!E !1!E | %100
{/!1!A} !1!c !1!c !1!c !1!c !1!c !1!c | !1!c !1!c !1!c !1!c !1!c !1!c | %102
 (!1!c !1!B) !1!B !1!B !1!B !1!B | !1!B !1!B !1!B !1!B !1!B !1!B | %104
 (!1!B !1!A) !1!A !1!A !1!A !1!A | !5!x !2!B, !1!A !5!x !2!B, !1!A | !1!A2 !1!A !1!E2 !1!E | %107
 !1!F2 !1!F !1!E2 !1!E |{/!1!A} !1!c !1!c !1!c !1!c !1!c !1!c | !1!c !1!c !1!c !1!c !1!c !1!c | %110
 (!1!c !1!B) !1!B !1!B !1!B !1!B | !1!B !1!B !1!B !1!B !1!B !1!B | %112
 (!1!B !1!A) !1!A !1!A !1!A !1!A | !5!x !2!B, !1!A !5!x !2!B, !1!A | %114
 !1!A2 !1!A"_cresc." !1!E2 !1!E | !1!E2 !1!E !1!G2 !1!G | !1!=A2 !1!A !1!E2 !1!E | %117
 !1!E2 !1!E !1!G2 !1!G |{/!1!A} !1!e !1!e !1!e !1!e !1!e !1!e | !2!x !1!e !1!e !1!e !1!e !1!e | %120
 !>![!4!D,!3!F!1!f]6 | !>![!6!E,,!3!B,!2!D!1!G]3- !fermata![!6!E,,!3!B,!2!D!1!G]3 || %122
[K:C]!<(! [!3!C!1!A] !1!A !1!A!<)! !1!A2 !1!E | [!2!D!1!F] !1!E !2!D [!2!C!1!E]2 !2!C | %124
!<(! !3!A, !3!A, !3!A,!<)! !3!A,3 | !3!A,3 [!3!^G,!2!B,]2 !1!E | !1!A !1!A !1!A !1!A2 !1!E | %127
({!1!F!1!=G)} !1!F !1!E !2!D !>![!3!A,!2!C!1!E]2 !2!C | .!2!B, .!2!C .!2!D .!2!C .!2!B, .!3!A, | %129
 .!3!^G, .!3!A, .!2!B, !3!A,3 | !3!A, !3!^G, !3!A, !>!!3!_B,2 [!2!=B,!1!F] | %131
 [!3!A,!2!B,!1!E]2 [!3!^G,!2!B,!1!E] [!3!C!1!A]2 !1!E |: %132
 !3!A, !3!^G, !3!A, !>!!3!_B,2 [!2!=B,!1!F] | %133
 [!3!A,!2!B,!1!E]2 [!3!^G,!2!B,!1!E] !>![!3!C!1!A]2 !1!E :: !>!!1!c2 !1!A !>!!1!c2 !1!A :: %135
 [!3!D!2!F]2 !1!A [!3!C!2!E]3 :|{/!1!=G} !1!F .!1!E .!2!D .!2!C .!2!B, .!3!A, | %137
 .!3!^G, .!3!A, .!2!B, .!2!C .!2!D .!1!E |: [!3!D!2!F]2 !1!A [!3!C!2!E]3 :| %139
{/!1!=G} !1!F !1!E !2!D !2!C !2!B, !3!A, | [!3!^G,!2!B,]2 !1!E !3!A,3 | x6 | %142
!<(! !1!^F !1!F !1!F!<)! [!3!^G,!2!B,!1!E]2 x | x4 x !1!E | %144
!<(! !1!^F !1!F !1!F!<)! [!3!^G,!2!B,!1!E]2 x | !>![!3!^G,!2!B,!1!E]3 !>![!3!G,!2!B,!1!E]3 | %146
!<(! [!2!B,!1!E]2 [!2!B,!1!E] !6!E,, [!3!^G,!2!B,!1!E] !6!E,,!<)! | %147
 !>![!2!B,!1!=G]3 !>![!2!B,!1!G]3 | %148
!<(! [!2!B,!1!G]2 [!2!B,!1!G] !6!G,, [!3!G,!2!B,!1!G] !6!G,,!<)! |: %149
 !4!x !1!G !4!x !4!x !1!=G !3!x | !2!C !1!G !3!G, !>!!1!G !3!G, !1!G | %151
 !4!x !1!G !4!x !4!x !1!=G !3!x | !2!C !1!E !3!G, !>!!2!C !4!E, !3!G, | %153
 !5!x !1!E !5!x !5!x !1!E !4!x | !4!x !1!E !3!x !3!x !1!E !4!x |1 %155
 !5!x !3!A, !2!B, (!>!!2!B, !2!C) !3!A, | !3!^G, !2!B, !1!E x x2 :|2 %157
 [!3!A,!2!B,!1!F]3 [!3!^G,!2!B,!1!E]3 || !3!A, !3!A, !3!A, !>!!2!C2 !3!A, | %159
 !>!!2!C2 !3!A, !>!!2!C2 !3!A, | !>!!2!C2 !3!A, !>!!2!C2 !3!A, | !>!!2!C2 !3!A, !>!!2!C2 !3!A, | %162
 !1!E !3!A, !2!C !1!E !2!A !1!c | !>!!1!e3 !1!E !2!C !3!A, | !>!!4!E,3 [!3!A,!2!B,]3 | %165
 [!3!A,!2!B,]3 [!3!^G,!2!B,!1!E]3 | !3!A, !3!A, !3!A, !>!!2!C2 !3!A, | %167
 !6!G,, !2!C !3!A, !>!!2!C2 !3!A, | !6!^F,, !2!C !3!A, !>!!2!C2 !3!A, | %169
 !6!F,, !2!C !3!A, !>!!2!C2 !3!A, | !1!E !3!A, !2!C !1!E !2!A !1!c | %171
 (!1!e !1!c) !2!A !1!E !2!C !3!A, | !>!!4!E,3 [!3!A,!2!B,]3 | [!3!A,!2!B,]3 [!3!^G,!2!B,!1!E]3 | %174
 !3!A,2 !2!C !2!B,2 !1!E |: !3!A,2 !2!C !2!B,2 !1!E :| [!3!C!1!A]2 !1!E !>!!1!E2 [!3!^G,!2!D!1!E] | %177
 !>!!1!E2 [!3!A,!2!C!1!E] !>!!1!E2 [!3!^G,!2!B,!1!E] | %178
 !>!!1!E2 [!3!A,!2!C!1!E] !>!!1!E2 [!3!^G,!2!D!1!E] | %179
 !>!!1!E2 [!3!A,!2!C!1!E] !>!!1!E2 [!3!^G,!2!B,!1!E] | [!3!C!1!A]2 !1!E !>!!1!E2 [!3!^G,!2!D!1!E] | %181
 !>!!1!E2 [!3!A,!2!C!1!E] !>!!1!E2 [!3!^G,!2!B,!1!E] | %182
 !>!!1!E2 [!3!A,!2!C!1!E] !>!!1!E2 [!3!^G,!2!D!1!E] | %183
 !>!!1!E2 [!3!A,!2!C!1!E] !>!!1!E2 [!3!^G,!2!B,!1!E] | %184
 [!3!C!1!A]2 !1!E !>!!1!E2 [!3!^G,!2!B,!1!E] |: [!3!C!1!A]2 !1!E !>!!1!E2 [!3!^G,!2!B,!1!E] :| %186
 [!3!C!1!A]2 !1!E !1!E2 [!3!^G,!2!B,!1!E] | !>!!1!A3 !1!A !1!A !1!A | %188
 !1!A !1!A !1!A !1!A !1!A !1!A | !1!A !1!A !1!A !1!A !1!A !1!A | !1!A !1!A !1!A !1!A !1!A !1!A | %191
 !>!!1!A3 !1!A !1!A !1!A | !1!A !1!A !1!A !1!A !1!A !1!A | !1!A !1!A !1!A !1!A !1!A !1!A | %194
 !1!A !1!A !1!A !1!A !1!A !1!A | [!3!C!1!A]3 !>![!3!A,!2!B,]3 | [!3!A,!2!B,]3 [!3!A,!2!B,]3 | %197
 [!3!A,!2!B,!1!E]3 !>![!3!A,!2!B,!1!F]3 | [!3!A,!2!B,!1!E]3 [!3!^G,!2!B,!1!E]3 | %199
 [!3!C!1!A]3!<(! !5!x !3!A, !2!B, | !5!x !3!A, !2!B, !5!x !3!A, !2!B, | %201
 [!3!A,!2!B,!1!E]3 [!3!A,!2!B,!1!F]3 | [!3!A,!2!B,!1!E]3 [!3!^G,!2!B,!1!E]3 | %203
 !3!A,3 !6!x !3!A, !3!A, | !6!x !3!A, !3!A, !5!x !3!A, !3!A, | !5!x !3!A, !3!A, !5!x !3!A, !3!A, | %206
 !5!x !3!A, !3!A, !6!x !3!A, !3!A, | !6!x !3!A, !3!A, !6!x !3!A, !3!A, | %208
 !6!x !3!A, !3!A, !5!x !3!A, !3!A, | !5!x !3!A, !3!A, !5!x !3!A, !3!A, | %210
 !5!x !3!A, !3!A, !6!x !3!A, !3!A,!<)! | x3 !>![!3!^G,!2!B,!1!E]3 | %212
 !>![!3!C!1!A]3 [!3!^G,!2!B,!1!E]3 | !3!A,3 !>![!3!^G,!2!B,!1!E]3 | %214
 !>![!3!C!1!A]3 [!3!^G,!2!B,!1!E]3 | !3!A,3 !>![!3!^G,!2!B,!1!E]3 | %216
 [!3!C!1!A]3!<(! !6!x !3!C !1!A | !6!x !3!C !1!A !6!x !3!C !1!A | %218
 !6!x !3!C !1!A!<)!!>(! !6!x !3!C !1!A | !6!x !3!C !1!A !6!x !3!C !1!A!>)! | !5!A,,6 | %221
 [!5!A,,!3!C!2!E!1!A]6 | [!5!A,,!4!A,!3!C!2!E!1!A]3- !fermata![!5!A,,!4!A,!3!C!2!E!1!A]3 |] %223
V:4
 !6!E,, !4!E, !6!E,, !4!E,2 !6!E,, | x6 | !6!E,, !4!E, !6!E,, !4!E,2 !6!E,, | x6 | %4
 !6!E,,2 !6!E,, !4!E, !6!E,, !4!E, | !6!E,,2 !6!E,, !4!E, !6!E,, !4!E, | x2 !6!E,, !6!E,,2 !6!E,, | %7
 x2 !6!E,, !6!E,,2 !6!E,, | x2 !6!E,, !6!E,,2 !6!E,, | !6!E,,2 !6!E,, !4!E, !6!E,, !4!E, | %10
 x2 !6!E,, !6!E,,2 !6!E,, | x2 !6!E,, !6!E,,2 !6!E,, | !4!E,2 !6!E,, !2!x2 !6!E,, | %13
 !2!x2 !6!E,, !5!x2 !6!E,, | !4!D,2 !6!E,, !2!x2 !6!E,, | !2!x2 !6!E,, !5!x2 !6!E,, | %16
 !5!C,2 !6!E,, !2!x2 !6!E,, | !2!x2 !6!E,, !5!x2 !6!E,, | !5!B,,2 !6!E,, !2!x2 !6!E,, | %19
 !2!x2 !6!E,, !5!x2 !6!E,, ||[M:6/8] !5!A,,3 !5!A,,3 | !5!A,,3 !5!A,,3 | !5!A,,3 !5!A,,2 !5!B,, | %23
 !5!C, !5!B,, !5!A,, !4!E,2 !6!E,, | !5!A,,3 !5!A,,3 | !5!A,,3 !5!A,,3 | !4!D,3 !4!E,3 | %27
 !6!E,,3 !5!A,,3 |: x4 x !4!D, | !4!E,2 !6!E,, !5!A,,3 :| x4 x !4!D, | !4!E,2 !6!E,, !5!A,,3 |: %32
 x6 :: !4!D,3 !5!A,,3 :| !4!D,3 !4!E,3 | !6!E,,3 !5!A,,3 |: !4!D,3 !5!A,,3 :| %37
 [!4!D,!3!B,]3 !4!E,3 | !6!E,,3 !5!A,,3 | !6!E,, !4!E, !6!E,, !>!!4!E,2 !6!E,, | %40
 !4!^D,3 !4!E,2 !6!E,, | !6!=F,, !4!=F, !6!F,, !6!E,,2 !4!E, | !4!^D,3 !4!E,2 !6!E,, | %43
 !4!E,2 !6!E,, !4!E,2 !6!E,, | !3!^G, !6!E,, !3!G, !6!E,,2 !6!E,, | !3!B,2 !6!E,, !3!B,2 !6!E,, | %46
 !3!B, !6!E,, !3!B, !6!E,,2 !6!E,, | [!5!A,,!3!C]3 [!5!A,,!3!C]3 | !5!A,,3 !5!A,,3 | %49
 !5!A,,3 !5!A,,2 !5!B,, | !5!C, !5!B,, !5!A,, !4!E,2 !6!E,, | !5!A,,3 [!5!A,,!3!C]3 | %52
 !5!A,,3 !5!A,,3 | !4!D,3 !4!E,3 | !6!E,,3 !5!A,,3 |: !>!!6!=G,,6 | !5!C,3 !4!E,3 | !>!!6!=G,,6 | %58
 !5!C,6 | !6!E,,6 | !5!A,,6 |1 !4!=F,3 !>!!4!F,3 | !4!E,3 (!>!!6!F,, !6!E,,) !6!E,, :|2 %63
 [!4!F,!3!A,]3 [!3!G,!2!B,]3 || !5!C,2 !5!C, !5!C,2 !5!C, | !5!C,2 !4!D, !4!E,2 !5!C, | %66
 !5!C,2 !5!C,{/!5!B,,} !>!!5!C,2 !5!C, | !5!C,2 !5!C,{/!5!B,,} !>!!5!C,2 !5!C, | %68
 !5!C,2 !5!C,{/!5!B,,} !>!!5!C,2 !5!C, | !5!C,2 !4!D, !4!E,2 !5!C, | %70
 !5!B,,2 !5!B,, !5!B,,2 !5!B,, | !6!E,,2 !6!E,, !6!E,,2 !6!E,, | !5!A,,2 !5!A,, !5!A,,2 !5!A,, | %73
 !5!A,,2 !5!B,, !5!C,2 !5!A,, | !6!=G,,2 !6!G,, !6!G,,2 !6!G,, | !6!^F,,2 !6!F,, !6!=F,,2 !6!F,, |: %76
 [!6!E,,!3!^G,]3 x x2 | x3 !>!!4!E,3 | !3!A,2 !3!=G, !4!F,2 !4!E, | !4!D,2 !5!C, !5!B,,2 !5!A,, :| %80
 [!6!E,,!3!^G,]3 x x2 | x6 | x6 | !6!E,,6 ||[K:A] !5!A,,3 !>!!4!C3 | !>!!4!D3 !>!!3!E3 | %86
 !5!A,,3 [!3!C!2!E]3 | [!3!B,!2!D]3 [!3!A,!2!C]3 | !6!E,,3 !>!!4!B,3 | !>!!4!C3 !>!!4!D3 | %90
 !6!E,,3 [!3!B,!2!D]3 | [!3!A,!2!C]3 [!4!E,!2!B,]3 | !5!A,,3 !>!!4!C3 | !>!!4!D3 !>!!3!E3 | %94
 !6!E,,3 [!3!C!2!E]3 | [!3!B,!2!D]3 [!3!A,!2!C]3 | !6!E,,3 !>!!4!B,3 | !>!!4!C3 !>!!4!D3 | %98
 !6!E,,3 [!3!B,!2!D]3 | [!3!A,!2!C]3 [!4!E,!2!B,]3 | !5!A,,3 !4!A,3 | !4!^A,3 !3!E3 | %102
 !4!B,3 !3!D3 | !4!G,3 !3!D3 | !4!A,3 !3!C3 | !4!D,3 !4!D,3 | [!4!E,!2!C]3 [!6!E,,!2!C]3 | %107
 [!6!E,,!3!B,!2!D]3 [!6!E,,!3!B,!2!D]3 | !5!A,,3 !4!A,3 | !4!^A,3 !3!E3 | !4!B,3 !3!D3 | %111
 !4!G,3 !3!D3 | !4!A,3 !3!C3 | !4!D,3 !4!D,3 | [!6!E,,!2!C]3 [!6!E,,!3!^A,!2!C]3 | %115
 [!6!E,,!3!B,!2!D]3 [!6!E,,!3!B,!2!D]3 | [!6!E,,!2!C]3 [!6!E,,!3!^A,!2!C]3 | %117
 [!6!E,,!3!B,!2!D]3 [!6!E,,!3!B,!2!D]3 | !6!E,,6 | !>!!3!E3 x x2 | x6 | x6 || %122
[K:C] !5!A,,3 [!5!A,,!3!C]3 | [!5!A,,!3!^G,]3 [!5!A,,!3!A,]3 | !5!A,,3 !5!A,,2 !5!B,, | %125
 !5!C, !5!B,, !5!A,, !4!E,2 !6!E,, | [!5!A,,!3!C]3 [!5!A,,!3!C]3 | !5!A,,3 !5!A,,3 | %128
 !4!D,3 !4!E,3 | !6!E,,3 !5!A,,3 | x4 x !4!D, | !4!E,2 !6!E,, !5!A,,3 |: x4 x !4!D, | %133
 !4!E,2 !6!E,, !5!A,,3 :: x6 :: !4!D,3 !5!A,,3 :| [!4!D,!3!B,]3 !4!E,3 | !6!E,,3 !5!A,,3 |: %138
 !4!D,3 !5!A,,3 :| [!4!D,!3!B,]3 !4!E,3 | !6!E,,3 !5!A,,3 | !6!E,, !4!E, !6!E,, !>!!4!E,2 !6!E,, | %142
 [!4!^D,!3!A,!2!C]3 !4!E,2 !6!E,, | !6!=F,, !4!=F, !6!F,, !6!E,,2 !4!E, | %144
 [!4!^D,!3!A,!2!C]3 !4!E,2 !6!E,, | !4!E,2 !6!E,, !4!E,2 !6!E,, | %146
 !3!^G, !6!E,, !3!G, !6!E,,2 !6!E,, | !3!=G,2 !6!G,, !3!G,2 !6!G,, | %148
 !3!G, !6!G,, !3!G, !6!G,,2 !6!G,, |: !6!G,,6 | !5!C,3 !4!E,3 | !6!G,,6 | !5!C,6 | !6!E,,6 | %154
 !5!A,,6 |1 !4!=F,3 !4!F,3 | !4!E,3 (!>!!6!F,, !6!E,,) !4!E, :|2 !4!D,3 !4!E,3 || !5!A,,3 !5!A,,3 | %159
 !6!=G,,3 !6!G,,3 | !6!^F,,3 !6!F,,3 | !6!=F,,3 !6!F,,3 | !6!E,,6- | !6!E,,6 | !5!x3 !4!F,3 | %165
 !4!D,3 !4!E,3 | !5!A,,3 !5!A,,3 | !6!=G,,3 !6!G,,3 | !6!^F,,3 !6!F,,3 | !6!=F,,3 !6!F,,3 | %170
 !6!E,,6- | !6!E,,6 | !5!x3 !4!F,3 | !4!D,3 !4!E,3 | !4!x !5!A,, !3!x !3!^G, !6!E,, !2!x |: %175
 !4!x !5!A,, !3!x !3!^G, !6!E,, !2!x :| !5!A,,3 x2 !5!B,, | x2 !5!C, x2 !4!D, | %178
 x2 !5!C, x2 !5!B,, | x2 !5!A,, x2 !6!E,, | !5!A,,3 x2 !5!B,, | x2 !5!C, x2 !4!D, | %182
 x2 !5!C, x2 !5!B,, | x2 !5!A,, x2 !6!E,, | !5!A,,3 x2 !6!E,, |: !5!A,,3 x2 !6!E,, :| %186
 !5!A,,3 x2 !6!E,, | !>![!5!A,,!3!C]3 !5!B,,3 | !5!C,3 !4!D,3 | !4!E,3 !4!F,3 | !4!E,3 !5!C,3 | %191
 !>![!5!A,,!3!C]3 !5!B,,3 | !5!C,3 !4!D,3 | !4!E,3 !4!F,3 | !4!E,3 !5!C,3 | !5!A,,3 !4!F,3 | %196
 !4!D,3 !4!^D,3 | !4!E,3 !6!E,,3 | !6!E,,3 !6!E,,3 | !5!A,,3 !4!F,3 | !4!D,3 !4!^D,3 | %201
 !4!E,3 !6!E,,3 | !6!E,,3 !6!E,,3 | !5!A,,3 !5!B,,3 | !5!C,3 !4!D,3 | !4!E,3 !4!F,3 | %206
 !4!E,3 !5!C,3 | !5!A,,3 !5!B,,3 | !5!C,3 !4!D,3 | !4!E,3 !4!F,3 | !4!E,3 !5!C,3 | %211
 !5!A,,3 !6!E,,3 | !5!A,,3 !6!E,,3 | !5!A,,3 !6!E,,3 | !5!A,,3 !6!E,,3 | !5!A,,3 !6!E,,3 | %216
 !5!A,,3 !5!A,,3 | !5!A,,3 !5!A,,3 | !5!A,,3 !5!A,,3 | !5!A,,3 !5!A,,3 | x6 | x6 | x6 |] %223
V:5
 x6 | x6 | x6 | x6 | x6 | x6 | x6 | x6 | x6 | x6 | x6 | x6 | x6 | x6 | x6 | x6 | x6 | x6 | x6 | %19
 x6 ||[M:6/8] x6 | x6 | x6 | x6 | x6 | x6 | x6 | x6 |: x6 | x6 :| x6 | x6 |: x6 :: x6 :| x6 | x6 |: %36
 x6 :| x6 | x6 | x6 | x6 | x6 | x6 | x6 | x6 | x6 | x6 | x6 | x6 | x6 | x6 | x6 | x6 | x6 | x6 |: %55
 =G2 ^G A2 B | x6 | =G2 ^G A2 B | x6 | E2 =F ^F2 ^G | A2 B !>!c2 A |1 x6 | x6 :|2 x6 || x6 | x6 | %66
 x6 | x6 | x6 | x6 | x6 | x6 | x6 | x6 | x6 | x6 |: x6 | x6 | x6 | x6 :| x6 | x6 | x6 | x6 || %84
[K:A] x6 | x6 | x6 | x6 | x6 | x6 | x6 | x6 | x6 | x6 | x6 | x6 | x6 | x6 | x6 | x6 | x6 | x6 | %102
 x6 | x6 | x6 | x6 | x6 | x6 | x6 | x6 | x6 | x6 | x6 | x6 | x6 | x6 | x6 | x6 | c2 x4 | x6 | x6 | %121
 x6 ||[K:C] x6 | x6 | x6 | x6 | x6 | x6 | x6 | x6 | x6 | x6 |: x6 | x6 :: x6 :: x6 :| x6 | x6 |: %138
 x6 :| x6 | x6 | x6 | x6 | x6 | x6 | x6 | x6 | x6 | x6 |: G2 ^G A2 B | x6 | G2 ^G A2 B | x6 | %153
 E2 F ^F2 ^G | A2 B !>!c2 A |1 x6 | x6 :|2 x6 || x6 | x6 | x6 | x6 | x6 | x6 | x6 | x6 | x6 | x6 | %168
 x6 | x6 | x6 | x6 | x6 | x6 | x6 |: x6 :| x6 | x6 | x6 | x6 | x6 | x6 | x6 | x6 | x6 |: x6 :| x6 | %187
 x6 | x6 | x6 | x6 | x6 | x6 | x6 | x6 | x6 | x6 | x6 | x6 | x6 | x6 | x6 | x6 | x6 | x6 | x6 | %206
 x6 | x6 | x6 | x6 | x6 | x6 | x6 | x6 | x6 | x6 | x6 | x6 | x6 | x6 | x6 | x6 | x6 |] %223
V:6
 x6 | x6 | x6 | x6 | x6 | x6 | x6 | x6 | x6 | x6 | x6 | x6 | x6 | x6 | x6 | x6 | x6 | x6 | x6 | %19
 x6 ||[M:6/8] x6 | x6 | x6 | x6 | x6 | x6 | x6 | x6 |: x6 | x6 :| x6 | x6 |: x6 :: x6 :| x6 | x6 |: %36
 x6 :| x6 | x6 | x6 | x6 | x6 | x6 | x6 | x6 | x6 | x6 | x6 | x6 | x6 | x6 | x6 | x6 | x6 | x6 |: %55
 !3!=G,2 !3!^G, !3!A,2 !2!B, | x6 | !3!=G,2 !3!^G, !3!A,2 !2!B, | x6 | %59
 !4!E,2 !4!=F, !4!^F,2 !3!^G, | !3!A,2 !2!B, !>!!2!C2 !3!A, |1 x6 | x6 :|2 x6 || x6 | x6 | x6 | %67
 x6 | x6 | x6 | x6 | x6 | x6 | x6 | x6 | x6 |: x6 | x6 | x6 | x6 :| x6 | x6 | x6 | x6 ||[K:A] x6 | %85
 x6 | x6 | x6 | x6 | x6 | x6 | x6 | x6 | x6 | x6 | x6 | x6 | x6 | x6 | x6 | x6 | x6 | x6 | x6 | %104
 x6 | x6 | x6 | x6 | x6 | x6 | x6 | x6 | x6 | x6 | x6 | x6 | x6 | x6 | !4!C2 x4 | x6 | x6 | x6 || %122
[K:C] x6 | x6 | x6 | x6 | x6 | x6 | x6 | x6 | x6 | x6 |: x6 | x6 :: x6 :: x6 :| x6 | x6 |: x6 :| %139
 x6 | x6 | x6 | x6 | x6 | x6 | x6 | x6 | x6 | x6 |: !3!G,2 !3!^G, !3!A,2 !2!B, | x6 | %151
 !3!G,2 !3!^G, !3!A,2 !2!B, | x6 | !4!E,2 !4!F, !4!^F,2 !3!^G, | !3!A,2 !2!B, !>!!2!C2 !3!A, |1 %155
 x6 | x6 :|2 x6 || x6 | x6 | x6 | x6 | x6 | x6 | x6 | x6 | x6 | x6 | x6 | x6 | x6 | x6 | x6 | x6 | %174
 x6 |: x6 :| x6 | x6 | x6 | x6 | x6 | x6 | x6 | x6 | x6 |: x6 :| x6 | x6 | x6 | x6 | x6 | x6 | x6 | %193
 x6 | x6 | x6 | x6 | x6 | x6 | x6 | x6 | x6 | x6 | x6 | x6 | x6 | x6 | x6 | x6 | x6 | x6 | x6 | %212
 x6 | x6 | x6 | x6 | x6 | x6 | x6 | x6 | x6 | x6 | x6 |] %223

